packages/bezier-icons/icons/refresh-circle-filled.svg

<svg width="24" height="24" viewBox="0 0 24 24" fill="none" xmlns="http://www.w3.org/2000/svg">
<path fill-rule="evenodd" clip-rule="evenodd" d="M18.2751 10.0973C18.2751 10.2703 18.1341 10.4103 17.9621 10.4103H14.4301C14.1511 10.4103 14.0111 10.0733 14.2091 9.87535L15.5231 8.56135C14.5771 7.62935 13.3291 7.11435 12.0001 7.11435C9.23111 7.11435 6.97711 9.36735 6.97711 12.1373C6.97711 14.9063 9.23111 17.1593 12.0001 17.1593C14.7701 17.1593 17.0231 14.9063 17.0231 12.1373H18.2731C18.2731 15.5953 15.4591 18.4093 12.0001 18.4093C8.54111 18.4093 5.72711 15.5953 5.72711 12.1373C5.72711 8.67835 8.54111 5.86435 12.0001 5.86435C13.6631 5.86435 15.2261 6.50835 16.4081 7.67635L17.7391 6.34435C17.9371 6.14635 18.2751 6.28635 18.2751 6.56635V10.0973ZM12.0001 2.00037C6.47712 2.00037 2.00012 6.47737 2.00012 12.0004C2.00012 17.5224 6.47712 22.0004 12.0001 22.0004C17.5231 22.0004 22.0001 17.5224 22.0001 12.0004C22.0001 6.47737 17.5231 2.00037 12.0001 2.00037Z" fill="#313234"/>
</svg>

<svg xmlns="http://www.w3.org/2000/svg" width="24" height="24" fill="none" viewBox="0 0 24 24"><path fill="#313234" fill-rule="evenodd" d="M18.275 10.097a.313.313 0 0 1-.313.313H14.43a.313.313 0 0 1-.22-.535l1.313-1.314A4.99 4.99 0 0 0 12 7.114a5.03 5.03 0 0 0-5.023 5.023A5.03 5.03 0 0 0 12 17.16a5.03 5.03 0 0 0 5.023-5.022h1.25A6.28 6.28 0 0 1 12 18.41a6.28 6.28 0 0 1-6.273-6.272A6.28 6.28 0 0 1 12 5.864a6.23 6.23 0 0 1 4.408 1.812l1.331-1.332a.314.314 0 0 1 .536.222zM12 2C6.477 2 2 6.477 2 12s4.477 10 10 10 10-4.478 10-10S17.523 2 12 2" clip-rule="evenodd"/></svg>
